X:524
T:Ultreya!
T:Onward!
Z:Jack Campin, http://www.campin.me.uk/
F:Jack Campin's Nine-Note Tunebook
% last edit 03-02-2013
N:song of Flemish pilgrims to Santiago, 13th century
N:version of "Dum Pater Familias" from the Codex Calixtinus
S:Daniel Gonzalez: Asi Canta Galicia
M:2/4
L:1/8
Q:1/4=90
K:GDor
zd Gd|d2>>c2|      (3(cBA) G2    |        AB    cB  |      (GA)    G2 |
zd Gd|d3   c|[M:3/4] (cB) (AG) F2|[M:2/4] AB    cB  |      (GA)    G2 |
      GD  GA|      (3(cBA)     F2|        AB (3(cdc)|[M:3/4]AG FA HA2||
%
[M:2/4] BA (3(GAB)|cd d2|d2 Gd|     (3(dc)B   A2 |
        BA (3(GAB)|cd d2|dd Gd|[M:3/4] cB  GA G2||
%
M:2/4
zd Gd|d2>>c2|      (3(cBA) G2    |        AB    cB  |      (GA)    G2 |
zd Gd|d3   c|[M:3/4] (cB) (AG) F2|[M:2/4] AB    cB  |      (GA)    G2 |
      GD  GA|      (3(cBA)     F2|        AB (3(cdc)|[M:3/4]AG FA HA2||
%
M:2/4
BA         GA|Bc         d2|dd Gd   |dc c2|
M:3/4
cd (3(cG)A G2|cd (3(cG)A G2|GG GA GA|G6  |]

